to flower
    repeat 9 [
        right 30
        forward 30
        left 40
        forward 20
        left 130
        forward 30
        left 40
        forward 20
        left 20
        forward 10
        left 120
        forward 10
    ]
end

clear
home
flower