clear
home

make "i 1
repeat 255 [
	make "j 1
	repeat 255 [
		make "red :i
		make "green :j * :i
		make "blue :j
		pencolor :red :green :blue 3
		repeat 4 [
			forward 500
			right 90
		]
		forward 25
		make "turnamount 3.7 * :i
		right :turnamount
		make "j :j + 1
	]
	forward 100
	left 17
	make "i :i + 1
]
